X: 350
T:De tous biens plaine
N: Derived from Jos2809-De_tous_biens_plaine.krn
C: Josquin des Prez
%%abc-version 2.0
%%abcx-abcm2ps-target-version 5.9.1 (29 Sep 2008)
%%abc-creator hum2abc beta
%%abcx-conversion-date 2019/02/12 16:15:54
%%abc-edited-by Jesse Rodin
%%abc-edited-by Jesse Rodin; Victoria Chang 2011/07/26
%%abcx-initial-encoding-date 2011/07/26/
%%humdrum-veritas 113863010
%%humdrum-veritas-data 1684718067
%%linebreak <none>
%%barnumbers 0
L: 1/4
M: 2/1
Q: 1/2=120
%%staves [1 2 3 4]
V: 1 clef=treble
V: 2 clef=treble-8
V: 3 clef=bass
V: 4 clef=bass
K: F
[V:1] G8 | 
[V:2] G8- | 
[V:3] G,3A,B,2G,2 | 
[V:4] z2G,3A,B,2 | 
[V:1] G6FE | 
[V:2] G8 | 
[V:3] B,3CD2G,2 | 
[V:4] G,2B,3CD2 | 
[V:1] D4G4- | 
[V:2] B8 | 
[V:3] z2D2B,2D2 | 
[V:4] G,2z2D2B,2 | 
[V:1] G4^F4 | 
[V:2] A8 | 
[V:3] D,2F,2D,2D2 | 
[V:4] D2D,2F,2D,2 | 
[V:1] G4G4 | 
[V:2] G4B4- | 
[V:3] B,2G,2DCB,A, | 
[V:4] D2B,2G,2DC | 
[V:1] G4A4 | 
[V:2] B4c4 | 
[V:3] G,2z2F,4 | 
[V:4] B,A,G,2z2F,2- | 
[V:1] B2AGF4 | 
[V:2] d8 | 
[V:3] D,E,F,2D,2z2 | 
[V:4] F,2D,E,F,2D,2 | 
[V:1] G4F4- | 
[V:2] _e4d4 | 
[V:3] G,2B,3CD2- | 
[V:4] z2G,2B,3C | 
[V:1] F4G2F2 | 
[V:2] B8 | 
[V:3] DCB,A,G,4 | 
[V:4] D3CB,A,G,2- | 
[V:1] E4D4- | 
[V:2] c4B4 | 
[V:3] C,2G,3A,B,2- | 
[V:4] G,2C,2G,3A, | 
[V:1] D4F2G2 | 
[V:2] d8 | 
[V:3] B,2B,,2B,2z2 | 
[V:4] B,4B,,2B,2 | 
[V:1] A4B4- | 
[V:2] c4d4 | 
[V:3] F,4B,,2B,2- | 
[V:4] z2F,4B,,2 | 
[V:1] B2A2G4- | 
[V:2] G8 | 
[V:3] B,CD2B,CD2 | 
[V:4] B,3CD2B,C | 
[V:1] G4^F4 | 
[V:2] A8 | 
[V:3] D,2D2D,2D2 | 
[V:4] D2D,2D2D,2 | 
[V:1] G8 | 
[V:2] G8- | 
[V:3] B,2G,A,B,CD2 | 
[V:4] D2B,2G,A,B,C | 
[V:1] z4G4 | 
[V:2] G8 | 
[V:3] G,A,B,CD2G,2- | 
[V:4] D2G,A,B,CD2 | 
[V:1] B8 | 
[V:2] z4G4 | 
[V:3] G,A,B,CD2z2 | 
[V:4] G,3A,B,CD2 | 
[V:1] A4A4 | 
[V:2] F4F4 | 
[V:3] D,3D,D,2D,2 | 
[V:4] z2D,3D,D,2 | 
[V:1] G4G4 | 
[V:2] B4B4 | 
[V:3] G,,2B,,2G,,2D,2- | 
[V:4] D,2G,,2B,,2G,,2 | 
[V:1] A6GF | 
[V:2] A4d4- | 
[V:3] D,E,F,2D,2A,2 | 
[V:4] D,3E,F,2D,2 | 
[V:1] E8 | 
[V:2] d2^c=B^c4 | 
[V:3] A,,2z2A,2z2 | 
[V:4] A,2A,,2z2A,2 | 
[V:1] D2F4ED | 
[V:2] d6cB | 
[V:3] D,3E,F,G,A,B, | 
[V:4] z2D,3E,F,G, | 
[V:1] C4D4 | 
[V:2] A4B4 | 
[V:3] C2z2G,4 | 
[V:4] A,B,C2z2G,2- | 
[V:1] E8 | 
[V:2] c8 | 
[V:3] C,2C2A,2C2- | 
[V:4] G,2C,2C2A,2 | 
[V:1] C4F4 | 
[V:2] A8 | 
[V:3] CB,A,G,F,2C2 | 
[V:4] C3B,A,G,F,2 | 
[V:1] E2D2D4- | 
[V:2] G4F4 | 
[V:3] C,2z2D,2z2 | 
[V:4] C2C,2z2D,2 | 
[V:1] D4^C4 | 
[V:2] E8 | 
[V:3] A,,3A,,A,,2A,2- | 
[V:4] z2A,,3A,,A,,2 | 
[V:1] D8 | 
[V:2] D8- | 
[V:3] A,A,A,2D,2F,2- | 
[V:4] A,3A,A,2D,2 | 
[V:1] z4F2G2 | 
[V:2] D8 | 
[V:3] F,G,A,2D,3E, | 
[V:4] F,3G,A,2D,2- | 
[V:1] A6GF | 
[V:2] z4d4 | 
[V:3] F,2D,E,F,G,A,B, | 
[V:4] D,E,F,2D,E,F,G, | 
[V:1] E4D4- | 
[V:2] c4B4 | 
[V:3] C2z2D4 | 
[V:4] A,B,C2z2D2- | 
[V:1] D4G4- | 
[V:2] G8 | 
[V:3] B,2G,2B,CD2 | 
[V:4] D2B,2G,2B,C | 
[V:1] G4^F4 | 
[V:2] A8 | 
[V:3] D,4z2D2- | 
[V:4] D2D,4z2 | 
[V:1] G6FE | 
[V:2] G4B4- | 
[V:3] DCB,A,G,F,G,2 | 
[V:4] D3CB,A,G,F, | 
[V:1] D4C4- | 
[V:2] B4c4 | 
[V:3] z2G,2C,2C2- | 
[V:4] G,2z2G,2C,2 | 
[V:1] C4F4 | 
[V:2] A8 | 
[V:3] CB,A,G,F,2C2 | 
[V:4] C3B,A,G,F,2 | 
[V:1] E4D4- | 
[V:2] G8 | 
[V:3] C,2G,A,B,CD2 | 
[V:4] C2C,2G,A,B,C | 
[V:1] D4C4 | 
[V:2] B4A4 | 
[V:3] G,2z2A,2z2 | 
[V:4] D2G,2z2A,2 | 
[V:1] D6CB, | 
[V:2] F4G4- | 
[V:3] D,2z2G,,2z2 | 
[V:4] z2D,2z2G,,2 | 
[V:1] A,8 | 
[V:2] G4^F4 | 
[V:3] D,2z2D,2z2 | 
[V:4] z2D,2z2D,2 | 
[V:1] G,8 | 
[V:2] G8- | 
[V:3] G,,2G,F,G,A,B,2 | 
[V:4] z2G,,2G,F,G,A, | 
[V:1] z4G,4 | 
[V:2] G8 | 
[V:3] G,F,G,A,B,CD2 | 
[V:4] B,2G,F,G,A,B,C | 
[V:1] B,2C2D4 | 
[V:2] z4G4 | 
[V:3] G,4z4 | 
[V:4] D2G,4z2 | 
[V:1] C4F4 | 
[V:2] A4F4 | 
[V:3] z8 | 
[V:4] z8 | 
[V:1] E2D2D4- | 
[V:2] G4D4 | 
[V:3] z8 | 
[V:4] z8 | 
[V:1] D4^C4 | 
[V:2] E8 | 
[V:3] z8 | 
[V:4] z8 | 
[V:1] D8 | 
[V:2] D8- | 
[V:3] A,4D,2A,2 | 
[V:4] z2A,4D,2 | 
[V:1] z4D4 | 
[V:2] D8 | 
[V:3] F,2A,3G,F,E, | 
[V:4] A,2F,2A,3G, | 
[V:1] F2G2A4- | 
[V:2] z4D4 | 
[V:3] D,3E,F,3G, | 
[V:4] F,E,D,3E,F,2- | 
[V:1] A4c2A2 | 
[V:2] F8 | 
[V:3] A,4z4 | 
[V:4] F,G,A,4z2 | 
[V:1] B6AG | 
[V:2] G4G4 | 
[V:3] D2B,3CD2 | 
[V:4] z2D2B,3C | 
[V:1] F4G4 | 
[V:2] A4B4 | 
[V:3] D,2z2G,2z2 | 
[V:4] D2D,2z2G,2 | 
[V:1] A4F4 | 
[V:2] c4d4- | 
[V:3] F,3E,D,C,B,,2 | 
[V:4] z2F,3E,D,C, | 
[V:1] B2A2G4 | 
[V:2] d4_e4 | 
[V:3] z2B,2_E,2B,2 | 
[V:4] B,,2z2B,2_E,2 | 
[V:1] F8 | 
[V:2] d4B4- | 
[V:3] z2B,,2z2B,C | 
[V:4] B,2z2B,,2z2 | 
[V:1] B4A4 | 
[V:2] B4c4 | 
[V:3] DEF2F,2z2 | 
[V:4] B,CDEF2F,2 | 
[V:1] B4c2B2 | 
[V:2] d4c4 | 
[V:3] B,,2z2F,2z2 | 
[V:4] z2B,,2z2F,2 | 
[V:1] A2G2G4- | 
[V:2] d4B4 | 
[V:3] D,2z2D4 | 
[V:4] z2D,2z2D2- | 
[V:1] G4^F4 | 
[V:2] A8 | 
[V:3] D,2D2D,2D2 | 
[V:4] D2D,2D2D,2 | 
[V:1] G8- | 
[V:2] G8- | 
[V:3] B,2G,2DCB,A, | 
[V:4] D2B,2G,2DC | 
[V:1] G8 |]  
[V:2] G8 |]  
[V:3] G,8 |]  
[V:4] B,A,G,6 |]  



